X:367
T: Ich wollte mal so gerne zu
N: P0627
O: Lothringen
S: PINCK, Louis: Verklingende Weisen Bd 4, Kassel 1939]
R: Liebeslied]
M: 4/4
L: 1/16
K: F
D4G3AB2A2 | G4G2(3FFFB3cd4 | c6z2
c2B2A2G2 | F4c2B2A4G4 | F4z4
F4A2G2 | F6C2B2c2d4 | c6d2
c2B2A2G2 | F4c2B2A4G4 | F4

@@@ Tune index: 7917
